cssgg/chevron-right-o.svg

<svg
  width="24"
  height="24"
  viewBox="0 0 24 24"
  fill="none"
  xmlns="http://www.w3.org/2000/svg"
>
  <path
    d="M11.0858 7.75739L15.3284 12L11.0858 16.2427L9.67157 14.8285L12.5 12L9.67157 9.1716L11.0858 7.75739Z"
    fill="currentColor"
  />
  <path
    fill-rule="evenodd"
    clip-rule="evenodd"
    d="M12 1C5.92487 1 1 5.92487 1 12C1 18.0751 5.92487 23 12 23C18.0751 23 23 18.0751 23 12C23 5.92487 18.0751 1 12 1ZM21 12C21 7.02944 16.9706 3 12 3C7.02944 3 3 7.02944 3 12C3 16.9706 7.02944 21 12 21C16.9706 21 21 16.9706 21 12Z"
    fill="currentColor"
  />
</svg>

<svg viewBox="0 0 24 24" xmlns="http://www.w3.org/2000/svg"><g><path d="M11.08 7.75l4.24 4.24 -4.25 4.24 -1.42-1.42 2.82-2.83 -2.83-2.83 1.41-1.42Z"/><path fill-rule="evenodd" d="M12 1C5.92 1 1 5.92 1 12c0 6.07 4.92 11 11 11 6.07 0 11-4.93 11-11 0-6.08-4.93-11-11-11Zm9 11c0-4.98-4.03-9-9-9 -4.98 0-9 4.02-9 9 0 4.97 4.02 9 9 9 4.97 0 9-4.03 9-9Z"/></g></svg>
